X: 024
T: flatworld
C: Andy Cutting
M: 3/4
L: 1/8
R: wals
K: Amin
e de|:ce Be Ae|F3 A cA|f2 fe dc|B3 e de|
&ce Be Ae|F2 fe dc|B3 d cB|1 A3 e de:|2 A6||
|:AB cA ag|f3 e dc|Bc dG gf|e3 d cB|
|AB cA fe|d3 c BA|1 B3 d cd|B6:|2 B3 d cB|A6||
